X: 668
T: Bai xinnian
L: 1/8
M: 2/4
K: F
d d/ f/ d A [I:setbarnb 1]| 
d d/ f/ d A | 
c A c d | 
A4 | 
c FG2 | 
c AG2 | 
c A G F | 
D4 | 
d Ac2 | 
A cA2 | 
c A G G | 
A4 | 
G A G D | 
A GA2 | 
c A G F | 
D4 |]

@@@ Tune index: 9542
